{ "compressionlevel":-1,
 "height":9,
 "infinite":false,
 "layers":[
        {
         "data":[1, 1, 1, 1, 1, 1, 1, 1, 1, 1, 1, 1, 1, 1, 1, 1, 1, 1, 1, 1, 1, 1,
            1, 1, 1, 1, 1, 1, 1, 1, 1, 1, 1, 1, 1, 1, 1, 1, 1, 1, 1, 1, 1, 1,
            1, 1, 1, 1, 1, 1, 1, 1, 1, 1, 1, 1, 1, 1, 1, 1, 1, 1, 1, 1, 1, 1,
            1, 1, 1, 1, 1, 1, 1, 1, 1, 1, 1, 1, 1, 1, 1, 1, 1, 1, 1, 1, 1, 1,
            1, 1, 1, 1, 1, 1, 1, 1, 1, 1, 1, 1, 1, 1, 1, 1, 1, 1, 1, 1, 1, 1,
            1, 1, 1, 1, 1, 1, 1, 1, 1, 1, 1, 1, 1, 1, 1, 1, 1, 1, 1, 1, 1, 1,
            1, 1, 1, 1, 1, 1, 1, 1, 1, 1, 1, 1, 1, 1, 1, 1, 1, 1, 1, 1, 1, 1,
            1, 1, 1, 1, 1, 1, 1, 1, 1, 1, 1, 1, 1, 1, 1, 1, 1, 1, 1, 1, 1, 1,
            1, 1, 1, 1, 1, 1, 1, 1, 1, 1, 1, 1, 1, 1, 1, 1, 1, 1, 1, 1, 1, 1],
         "height":9,
         "id":1,
         "name":"ground",
         "opacity":1,
         "type":"tilelayer",
         "visible":true,
         "width":22,
         "x":0,
         "y":0
        }, 
        {
         "data":[0, 0, 0, 0, 0, 0, 0, 0, 0, 0, 57, 75, 0, 0, 0, 0, 0, 0, 0, 0, 0, 0,
            0, 0, 0, 0, 0, 0, 0, 0, 0, 0, 57, 75, 0, 0, 0, 0, 0, 0, 0, 0, 0, 0,
            0, 0, 0, 0, 0, 0, 0, 0, 0, 0, 57, 75, 0, 0, 0, 0, 0, 0, 0, 0, 0, 0,
            0, 0, 0, 0, 0, 0, 0, 0, 0, 0, 57, 75, 0, 0, 0, 0, 0, 0, 0, 0, 0, 0,
            0, 0, 0, 0, 0, 0, 0, 0, 0, 0, 59, 73, 0, 0, 0, 0, 0, 0, 0, 0, 0, 0,
            0, 0, 0, 0, 0, 0, 0, 0, 0, 0, 57, 75, 0, 0, 0, 0, 0, 0, 0, 0, 0, 0,
            0, 0, 0, 0, 0, 0, 0, 0, 0, 0, 57, 75, 0, 0, 0, 0, 0, 0, 0, 0, 0, 0,
            0, 0, 0, 0, 0, 0, 0, 0, 0, 0, 57, 75, 0, 0, 0, 0, 0, 0, 0, 0, 0, 0,
            0, 0, 0, 0, 0, 0, 0, 0, 0, 0, 57, 75, 0, 0, 0, 0, 0, 0, 0, 0, 0, 0],
         "height":9,
         "id":2,
         "name":"main",
         "opacity":1,
         "type":"tilelayer",
         "visible":true,
         "width":22,
         "x":0,
         "y":0
        }, 
        {
         "data":[0, 0, 0, 0, 0, 0, 0, 0, 0, 0, 0, 0, 0, 0, 0, 0, 0, 0, 0, 0, 0, 0,
            0, 0, 0, 25, 29, 29, 29, 45, 0, 0, 0, 0, 0, 0, 25, 29, 29, 29, 45, 0, 0, 0,
            0, 0, 0, 39, 0, 0, 0, 39, 0, 0, 0, 0, 0, 0, 39, 0, 0, 0, 39, 0, 0, 0,
            0, 0, 0, 39, 0, 0, 0, 39, 0, 0, 0, 0, 0, 0, 39, 0, 0, 0, 39, 0, 0, 0,
            0, 0, 0, 39, 0, 0, 0, 33, 29, 29, 0, 0, 29, 29, 41, 0, 0, 0, 39, 0, 0, 0,
            0, 0, 0, 39, 0, 0, 0, 39, 0, 0, 0, 0, 0, 0, 39, 0, 0, 0, 39, 0, 0, 0,
            0, 0, 0, 39, 0, 0, 0, 39, 0, 0, 0, 0, 0, 0, 39, 0, 0, 0, 39, 0, 0, 0,
            0, 0, 0, 31, 29, 29, 29, 43, 0, 0, 0, 0, 0, 0, 31, 29, 29, 29, 43, 0, 0, 0,
            0, 0, 0, 0, 0, 0, 0, 0, 0, 0, 0, 0, 0, 0, 0, 0, 0, 0, 0, 0, 0, 0],
         "height":9,
         "id":3,
         "name":"branch",
         "opacity":1,
         "type":"tilelayer",
         "visible":true,
         "width":22,
         "x":0,
         "y":0
        }, 
        {
         "data":[0, 0, 0, 0, 0, 0, 0, 0, 0, 0, 0, 0, 0, 0, 0, 0, 0, 0, 0, 0, 0, 0,
            0, 0, 0, 0, 0, 0, 0, 0, 0, 0, 0, 0, 0, 0, 0, 0, 0, 0, 0, 0, 0, 0,
            0, 0, 0, 0, 0, 129, 0, 0, 0, 0, 0, 0, 0, 0, 0, 0, 129, 0, 0, 0, 0, 0,
            0, 0, 0, 0, 129, 0, 129, 0, 0, 0, 0, 0, 0, 0, 0, 129, 0, 129, 0, 0, 0, 0,
            0, 0, 0, 0, 129, 0, 129, 0, 0, 0, 0, 0, 0, 0, 0, 129, 0, 129, 0, 0, 0, 0,
            0, 0, 0, 0, 129, 0, 129, 0, 0, 0, 0, 0, 0, 0, 0, 129, 0, 129, 0, 0, 0, 0,
            0, 0, 0, 0, 0, 129, 0, 0, 0, 0, 0, 0, 0, 0, 0, 0, 129, 0, 0, 0, 0, 0,
            0, 0, 0, 0, 0, 0, 0, 0, 0, 0, 0, 0, 0, 0, 0, 0, 0, 0, 0, 0, 0, 0,
            0, 0, 0, 0, 0, 0, 0, 0, 0, 0, 0, 0, 0, 0, 0, 0, 0, 0, 0, 0, 0, 0],
         "height":9,
         "id":4,
         "name":"crop",
         "opacity":1,
         "type":"tilelayer",
         "visible":true,
         "width":22,
         "x":0,
         "y":0
        }],
 "nextlayerid":5,
 "nextobjectid":1,
 "orientation":"orthogonal",
 "renderorder":"right-down",
 "tiledversion":"1.12.2",
 "tileheight":128,
 "tilesets":[
        {
         "firstgid":1,
         "source":"..\/..\/..\/Tiled\/Canal Builder\/tilesheet\/terrain.tsx"
        }, 
        {
         "firstgid":25,
         "source":"..\/..\/..\/Tiled\/Canal Builder\/tilesheet\/canal.tsx"
        }, 
        {
         "firstgid":129,
         "source":"..\/..\/..\/Tiled\/Canal Builder\/tilesheet\/markers.tsx"
        }],
 "tilewidth":128,
 "type":"map",
 "version":"1.10",
 "width":22
}