{ "compressionlevel":-1,
 "height":8,
 "infinite":false,
 "layers":[
        {
         "data":[12, 12, 12, 12, 12, 5, 3, 2, 3, 3, 3,
            12, 12, 12, 12, 12, 8, 12, 8, 12, 12, 12,
            3, 3, 2, 3, 3, 9, 12, 8, 12, 12, 12,
            12, 12, 8, 12, 12, 8, 12, 12, 12, 12, 12,
            12, 12, 8, 12, 12, 5, 3, 3, 2, 3, 3,
            12, 12, 12, 12, 12, 8, 12, 12, 8, 12, 12,
            3, 3, 2, 3, 3, 9, 12, 12, 8, 12, 12,
            12, 12, 8, 12, 12, 8, 12, 12, 12, 12, 12],
         "height":8,
         "id":1,
         "name":"Tile Layer 1",
         "opacity":1,
         "type":"tilelayer",
         "visible":true,
         "width":11,
         "x":0,
         "y":0
        }],
 "nextlayerid":2,
 "nextobjectid":1,
 "orientation":"orthogonal",
 "renderorder":"right-down",
 "tiledversion":"1.12.2",
 "tileheight":256,
 "tilesets":[
        {
         "columns":0,
         "firstgid":1,
         "grid":
            {
             "height":1,
             "orientation":"orthogonal",
             "width":1
            },
         "margin":0,
         "name":"CANAL TILES",
         "spacing":0,
         "tilecount":12,
         "tileheight":252,
         "tiles":[
                {
                 "id":0,
                 "image":"..\/..\/..\/Downloads\/untitled folder 2\/ditch_es.png",
                 "imageheight":252,
                 "imagewidth":252
                }, 
                {
                 "id":1,
                 "image":"..\/..\/..\/Downloads\/untitled folder 2\/ditch_esw.png",
                 "imageheight":252,
                 "imagewidth":252
                }, 
                {
                 "id":2,
                 "image":"..\/..\/..\/Downloads\/untitled folder 2\/ditch_ew.png",
                 "imageheight":252,
                 "imagewidth":252
                }, 
                {
                 "id":3,
                 "image":"..\/..\/..\/Downloads\/untitled folder 2\/ditch_ne.png",
                 "imageheight":252,
                 "imagewidth":252
                }, 
                {
                 "id":4,
                 "image":"..\/..\/..\/Downloads\/untitled folder 2\/ditch_nes.png",
                 "imageheight":252,
                 "imagewidth":252
                }, 
                {
                 "id":5,
                 "image":"..\/..\/..\/Downloads\/untitled folder 2\/ditch_nesw.png",
                 "imageheight":252,
                 "imagewidth":252
                }, 
                {
                 "id":6,
                 "image":"..\/..\/..\/Downloads\/untitled folder 2\/ditch_new.png",
                 "imageheight":252,
                 "imagewidth":252
                }, 
                {
                 "id":7,
                 "image":"..\/..\/..\/Downloads\/untitled folder 2\/ditch_ns.png",
                 "imageheight":252,
                 "imagewidth":252
                }, 
                {
                 "id":8,
                 "image":"..\/..\/..\/Downloads\/untitled folder 2\/ditch_nsw.png",
                 "imageheight":252,
                 "imagewidth":252
                }, 
                {
                 "id":9,
                 "image":"..\/..\/..\/Downloads\/untitled folder 2\/ditch_nw.png",
                 "imageheight":252,
                 "imagewidth":252
                }, 
                {
                 "id":10,
                 "image":"..\/..\/..\/Downloads\/untitled folder 2\/ditch_sw.png",
                 "imageheight":252,
                 "imagewidth":252
                },
            
                {
                 "id":11,
                 "image":"..\/..\/..\/Downloads\/untitled folder 2\/ground.png",
                 "imageheight":252,
                 "imagewidth":252
                }],
         "tilewidth":252
        }],
 "tilewidth":256,
 "type":"map",
 "version":"1.10",
 "width":11
}